16x16/actions/kt-show-statusbar.svg

<svg viewBox="0 0 16 16" xmlns="http://www.w3.org/2000/svg"><path d="m2 2v3h3v-3zm4 0v1h4.879l1-1zm7.314 0-11.314 11.295.715.705 11.285-11.303zm-7.314 2v1h2.879l1-1zm8 .121-.879.879h.879zm-12 2.879v3h1.879l1.121-1.121v-1.879zm4 0v.879l.879-.879zm5.121 0-1 1h3.879v-1zm-2 2-1 1h5.879v-1zm-3 3-1 1h8.879v-1z" fill="#8b9cbe"/></svg>

<svg xmlns="http://www.w3.org/2000/svg" viewBox="0 0 16 16"><path style="fill:currentColor;fill-opacity:1;stroke:none;color:#8b9cbe" d="M2 2v3h3V2H2zm4 0v1h4.879l1-1H6zm7.314 0L2 13.295l.715.705L14 2.697 13.314 2zM6 4v1h2.879l1-1H6zm8 .121L13.121 5H14v-.879zM2 7v3h1.879L5 8.879V7H2zm4 0v.879L6.879 7H6zm5.121 0-1 1H14V7h-2.879zm-2 2-1 1H14V9H9.121zm-3 3-1 1H14v-1H6.121z"/></svg>
